X:1
T:If Ever I Marry (I'll Marry a Maid)
M:6/8
L:1/8
K:Bb
G/2-A/2| B3/2 A/2 G ^F=EF| GAG ^F3/2- G/2 A| B3/2 c/2 d A3/2 B/2 c|\
B-A G ^F2 F| G3/2 A/2 B A3/2 B/2 c| d2 dd-c B| A2 G ^F=EF| GGD G2||\
